files/opel.svg

<svg clip-rule="evenodd" fill-rule="evenodd" stroke-linejoin="round" stroke-miterlimit="2" viewBox="0 0 560 400" xmlns="http://www.w3.org/2000/svg"><g fill="#1d1d1b" fill-rule="nonzero" transform="matrix(.830102 0 0 .830102 139.999 76.94291986787)"><path d="m337.31 295.586v-9.203h-27.237v-35.842h-10.251v45.045zm-137.304 0h38.759v-8.904h-28.508v-9.727h25.665v-8.306h-25.665v-9.203h28.358v-8.905h-38.609zm-84.476-22.522v-13.993h14.815c1.707-.074 3.411.194 5.014.786 1.088.425 1.982 1.238 2.506 2.282.514 1.205.757 2.508.711 3.816.199 2.019-.515 4.024-1.945 5.463-1.843 1.256-4.064 1.838-6.286 1.646zm-10.251-22.523v45.045h10.251v-13.917h15.414c5.935 0 10.374-1.21 13.319-3.629 2.942-2.418 4.413-6.372 4.414-11.86.162-3.225-.522-6.436-1.982-9.316-1.311-2.258-3.379-3.982-5.837-4.863-3.192-1.071-6.549-1.565-9.914-1.46zm-88.219 35.243c-2.131-.888-3.854-2.544-4.826-4.639-1.057-2.533-1.555-5.264-1.459-8.006-.102-2.752.383-5.494 1.421-8.044.97-2.092 2.675-3.757 4.789-4.677 2.921-1.172 6.059-1.707 9.204-1.571 3.174-.14 6.345.369 9.316 1.497 2.11.892 3.808 2.55 4.751 4.639 1.035 2.564 1.519 5.317 1.422 8.081.107 2.764-.377 5.519-1.422 8.081-.983 2.078-2.704 3.719-4.826 4.602-2.942 1.143-6.088 1.665-9.241 1.534-3.113.128-6.22-.382-9.129-1.497m23.944 8.044c3.688-1.539 6.749-4.283 8.68-7.782 3.789-8.235 3.789-17.729 0-25.964-1.932-3.499-4.992-6.243-8.68-7.782-4.708-1.872-9.752-2.75-14.815-2.582-5.04-.174-10.061.705-14.741 2.582-3.659 1.556-6.69 4.297-8.605 7.782-3.789 8.235-3.789 17.729 0 25.964 1.914 3.485 4.946 6.227 8.605 7.782 4.705 1.881 9.752 2.76 14.816 2.581 5.038.165 10.057-.714 14.74-2.581"/><path d="m296.024 112.133-24.675-1.569-2.985-.19c.223-2.746.368-5.513.368-8.315 0-.004 0-.007 0-.011 0-55.952-46.042-101.993-101.993-101.993-47.4 0-88.854 33.042-99.425 79.247h-22.551c-1.223-.002-2.379.568-3.123 1.538l-5.765 7.963c-.269.346-.416.772-.416 1.21 0 1.08.889 1.968 1.969 1.968h.002l24.578 1.534 3.085.193c-.224 2.758-.37 5.537-.37 8.351v.011c0 55.952 46.042 101.993 101.993 101.993 47.4 0 88.855-33.043 99.425-79.249h22.548c1.223.001 2.379-.569 3.123-1.54l5.767-7.961c.271-.346.418-.773.418-1.212 0-1.08-.888-1.968-1.968-1.968-.001 0-.003 0-.005 0zm-129.297-100.264c49.456.056 90.135 40.734 90.19 90.19 0 2.55-.132 5.069-.341 7.566l-.038-.003-75.392-4.792 32.714-22.416c.458-.32.732-.844.732-1.403 0-.935-.768-1.706-1.703-1.709h-133.438c10.373-39.561 46.377-67.38 87.276-67.433zm0 180.38c-49.455-.056-90.134-40.734-90.189-90.19 0-2.566.133-5.1.344-7.612l75.403 4.704-32.64 22.55c-.459.319-.734.844-.734 1.404 0 .937.771 1.709 1.709 1.709h.002 133.382c-10.372 39.563-46.377 67.382-87.277 67.435z"/></g></svg>

<?xml version="1.0" encoding="UTF-8" standalone="no"?>
<!DOCTYPE svg PUBLIC "-//W3C//DTD SVG 1.1//EN" "http://www.w3.org/Graphics/SVG/1.1/DTD/svg11.dtd">
<svg width="100%" height="100%" viewBox="0 0 560 400" version="1.1" xmlns="http://www.w3.org/2000/svg" xmlns:xlink="http://www.w3.org/1999/xlink" xml:space="preserve" xmlns:serif="http://www.serif.com/" style="fill-rule:evenodd;clip-rule:evenodd;stroke-linejoin:round;stroke-miterlimit:2;">
    <g transform="matrix(0.830102,0,0,0.830102,139.999,76.9431)">
        <g transform="matrix(1,0,0,1,0,-0.000216599)">
            <path d="M337.31,295.586L337.31,286.383L310.073,286.383L310.073,250.541L299.822,250.541L299.822,295.586L337.31,295.586ZM200.006,295.586L238.765,295.586L238.765,286.682L210.257,286.682L210.257,276.955L235.922,276.955L235.922,268.649L210.257,268.649L210.257,259.446L238.615,259.446L238.615,250.541L200.006,250.541L200.006,295.586ZM115.53,273.064L115.53,259.071L130.345,259.071C132.052,258.997 133.756,259.265 135.359,259.857C136.447,260.282 137.341,261.095 137.865,262.139C138.379,263.344 138.622,264.647 138.576,265.955C138.775,267.974 138.061,269.979 136.631,271.418C134.788,272.674 132.567,273.256 130.345,273.064L115.53,273.064ZM105.279,250.541L105.279,295.586L115.53,295.586L115.53,281.669L130.944,281.669C136.879,281.669 141.318,280.459 144.263,278.04C147.205,275.622 148.676,271.668 148.677,266.18C148.839,262.955 148.155,259.744 146.695,256.864C145.384,254.606 143.316,252.882 140.858,252.001C137.666,250.93 134.309,250.436 130.944,250.541L105.279,250.541ZM17.06,285.784C14.929,284.896 13.206,283.24 12.234,281.145C11.177,278.612 10.679,275.881 10.775,273.139C10.673,270.387 11.158,267.645 12.196,265.095C13.166,263.003 14.871,261.338 16.985,260.418C19.906,259.246 23.044,258.711 26.189,258.847C29.363,258.707 32.534,259.216 35.505,260.344C37.615,261.236 39.313,262.894 40.256,264.983C41.291,267.547 41.775,270.3 41.678,273.064C41.785,275.828 41.301,278.583 40.256,281.145C39.273,283.223 37.552,284.864 35.43,285.747C32.488,286.89 29.342,287.412 26.189,287.281C23.076,287.409 19.969,286.899 17.06,285.784M41.004,293.828C44.692,292.289 47.753,289.545 49.684,286.046C53.473,277.811 53.473,268.317 49.684,260.082C47.752,256.583 44.692,253.839 41.004,252.3C36.296,250.428 31.252,249.55 26.189,249.718C21.149,249.544 16.128,250.423 11.448,252.3C7.789,253.856 4.758,256.597 2.843,260.082C-0.946,268.317 -0.946,277.811 2.843,286.046C4.757,289.531 7.789,292.273 11.448,293.828C16.153,295.709 21.2,296.588 26.264,296.409C31.302,296.574 36.321,295.695 41.004,293.828" style="fill:rgb(29,29,27);fill-rule:nonzero;"/>
        </g>
        <g transform="matrix(1,0,0,1,0,-0.000216599)">
            <path d="M296.024,112.133L271.349,110.564L268.364,110.374C268.587,107.628 268.732,104.861 268.732,102.059C268.732,102.055 268.732,102.052 268.732,102.048C268.732,46.096 222.69,0.055 166.739,0.055C119.339,0.055 77.885,33.097 67.314,79.302L44.763,79.302C43.54,79.3 42.384,79.87 41.64,80.84L35.875,88.803C35.606,89.149 35.459,89.575 35.459,90.013C35.459,91.093 36.348,91.981 37.428,91.981C37.429,91.981 37.429,91.981 37.43,91.981L62.008,93.515L65.093,93.708C64.869,96.466 64.723,99.245 64.723,102.059C64.723,102.063 64.723,102.066 64.723,102.07C64.723,158.022 110.765,204.063 166.716,204.063C214.116,204.063 255.571,171.02 266.141,124.814L288.689,124.814C289.912,124.815 291.068,124.245 291.812,123.274L297.579,115.313C297.85,114.967 297.997,114.54 297.997,114.101C297.997,113.021 297.109,112.133 296.029,112.133C296.028,112.133 296.026,112.133 296.024,112.133L296.024,112.133ZM166.727,11.869C216.183,11.925 256.862,52.603 256.917,102.059C256.917,104.609 256.785,107.128 256.576,109.625L256.538,109.622L181.146,104.83L213.86,82.414C214.318,82.094 214.592,81.57 214.592,81.011C214.592,80.076 213.824,79.305 212.889,79.302L79.451,79.302C89.824,39.741 125.828,11.922 166.727,11.869ZM166.727,192.249C117.272,192.193 76.593,151.515 76.538,102.059C76.538,99.493 76.671,96.959 76.882,94.447L152.285,99.151L119.645,121.701C119.186,122.02 118.911,122.545 118.911,123.105C118.911,124.042 119.682,124.814 120.62,124.814C120.621,124.814 120.621,124.814 120.622,124.814L254.004,124.814C243.632,164.377 207.627,192.196 166.727,192.249L166.727,192.249Z" style="fill:rgb(29,29,27);fill-rule:nonzero;"/>
        </g>
    </g>
</svg>
